X: 1
T: Bour\'ee d'Auvergne
O: Trad. Auvergne
R: bourree
S: handout at NEFFA 2014
S: handout at NEFFA 2016 from Mark Vidor p.16 #2
Z: 2015 John Chambers <jc:trillian.mit.edu>
M: 3/4
L: 1/8
K: Am
|:\
"Am"e2 e2 d2 | e4 c2 | "G"Bd c2 B2 | "F"c2 A2 A2 |\
"Am"e2 e2 d2 | e4 c2 | "G"Bd c2 B2 | "F"A6 :|
|:\
"Am"A2 G2 A2 | "C"E4 c2 | "D7"Bd c2 B2 | "F"c2 A2 A2 |\
"Am"A2 G2 A2 | "C"E4 A2 | "G"GA B2 G2 | "Am"A6 :|
